public/images/employers/spacex.svg

<svg enable-background="new -4.358 -36.868 112.328 112.328" height="112.328" viewBox="-4.358 -36.868 112.328 112.328" width="112.328" xmlns="http://www.w3.org/2000/svg"><g transform="translate(-2.119837 3.423312)"><path d="m15.173 10.448h-11.551l-.627 1.193 12.828 9.35c2.43-1.406 5.074-2.832 7.95-4.24" fill="#005288"/><path d="m25.523 28.064 11.275 8.221h11.692l.484-1.088-16.836-12.325c-2.236 1.643-4.445 3.375-6.615 5.192" fill="#005288"/><path d="m13.454 36.267h-10.452l-.882-1.385c7.106-6.86 38.888-36.271 107.972-39.422 0 0-57.986 1.956-96.638 40.807" fill="#a7a9ac"/></g></svg>

<?xml version="1.0" encoding="utf-8"?>
<!-- Generator: Adobe Illustrator 16.0.0, SVG Export Plug-In . SVG Version: 6.00 Build 0)  -->
<!DOCTYPE svg PUBLIC "-//W3C//DTD SVG 1.1//EN" "http://www.w3.org/Graphics/SVG/1.1/DTD/svg11.dtd">
<svg version="1.1"
	 id="Layer_1" xmlns:cc="http://creativecommons.org/ns#" xmlns:svg="http://www.w3.org/2000/svg" xmlns:rdf="http://www.w3.org/1999/02/22-rdf-syntax-ns#" xmlns:dc="http://purl.org/dc/elements/1.1/"
	 xmlns="http://www.w3.org/2000/svg" xmlns:xlink="http://www.w3.org/1999/xlink" x="0px" y="0px" width="112.328px"
	 height="112.328px" viewBox="-4.358 -36.868 112.328 112.328" enable-background="new -4.358 -36.868 112.328 112.328"
	 xml:space="preserve">
<g id="g4598" transform="translate(-2.1198369,3.4233123)">
	<path id="path4559" fill="#005288" d="M15.173,10.448H3.622l-0.627,1.193l12.828,9.35c2.43-1.406,5.074-2.832,7.95-4.24"/>
	<path id="path4561" fill="#005288" d="M25.523,28.064l11.275,8.221H48.49l0.484-1.088L32.138,22.872
		C29.902,24.515,27.693,26.247,25.523,28.064"/>
	<path id="path4563" fill="#A7A9AC" d="M13.454,36.267H3.002L2.12,34.882C9.226,28.022,41.008-1.389,110.092-4.54
		C110.092-4.54,52.106-2.584,13.454,36.267"/>
</g>
</svg>
